icons/src/svg/message.svg

<svg width="32" height="32" viewBox="0 0 32 32" fill="none" xmlns="http://www.w3.org/2000/svg">
<path fill-rule="evenodd" clip-rule="evenodd" d="M6.15464 5.99808L25.6815 5.99805C26.8959 5.99804 27.8815 6.98383 27.8815 8.19941V19.164C27.8815 20.3793 26.8964 21.365 25.6822 21.3654L21.7301 21.3666H21.7298H10.2776C10.2641 21.3663 10.2505 21.3663 10.2369 21.3666H9.95398V21.4136C9.87134 21.4401 9.7908 21.4778 9.71449 21.5272L3.97188 25.2475L3.95465 20.3019V8.19809C3.95465 6.98306 4.93962 5.99809 6.15464 5.99808ZM1.95465 20.3054V21.5023H1.95882L1.97827 27.0862C1.97954 27.452 2.18046 27.7879 2.50215 27.9621C2.82384 28.1362 3.21496 28.1209 3.52197 27.922L10.5537 23.3666H21.7301H21.7304L25.6828 23.3654C28.0024 23.3646 29.8815 21.4825 29.8815 19.164V8.19941C29.8815 5.88037 28.0016 3.99804 25.6815 3.99805L6.15464 3.99808C3.83505 3.99809 1.95465 5.87849 1.95465 8.19809V19.8103C1.95357 19.8299 1.95306 19.8496 1.95313 19.8695L1.95465 20.3054Z" fill="#0D0F13"/>
</svg>

<svg fill="none" xmlns="http://www.w3.org/2000/svg" viewBox="0 0 32 32">
  <path fill-rule="evenodd" clip-rule="evenodd" d="M6.154 5.998h19.527c1.215 0 2.2.986 2.2 2.201v10.965a2.201 2.201 0 0 1-2.2 2.201l-3.951.001H9.954v.047a1.005 1.005 0 0 0-.24.114l-5.742 3.72-.018-4.945V8.198a2.2 2.2 0 0 1 2.2-2.2Zm-4.2 14.307v1.197h.005l.019 5.584a1 1 0 0 0 1.544.836l7.031-4.556H21.73l3.953-.001a4.201 4.201 0 0 0 4.198-4.201V8.199a4.201 4.201 0 0 0-4.2-4.201H6.154a4.2 4.2 0 0 0-4.2 4.2V19.81a1.01 1.01 0 0 0-.001.06l.001.435Z" fill="currentColor"/>
</svg>
